src/pos-icons/music-note-quarter-dotted.svg

<svg height="24" viewBox="0 0 24 24" width="24" xmlns="http://www.w3.org/2000/svg"><path d="m12 13v.56a3.96 3.96 0 0 0 -2-.56 4 4 0 1 0 4 4v-14h-2m4.5 14a1.5 1.5 0 1 1 -1.5 1.5 1.5 1.5 0 0 1 1.5-1.5z"/></svg>

<?xml version="1.0" encoding="UTF-8"?><!DOCTYPE svg PUBLIC "-//W3C//DTD SVG 1.1//EN" "http://www.w3.org/Graphics/SVG/1.1/DTD/svg11.dtd"><svg xmlns="http://www.w3.org/2000/svg" xmlns:xlink="http://www.w3.org/1999/xlink" version="1.1" id="mdi-music-note-quarter-dotted" width="24" height="24" viewBox="0 0 24 24"><path d="M12 13V13.56A3.96 3.96 0 0 0 10 13A4 4 0 1 0 14 17V3H12M16.5 17A1.5 1.5 0 1 1 15 18.5A1.5 1.5 0 0 1 16.5 17Z" /></svg>
